X:1
T:Title
%%score { ( 1 3 5 ) | ( 2 4 6 ) }
L:1/8
M:4/4
K:F
V:1 treble nm="Grand Piano"
V:3 treble 
V:5 treble 
V:2 bass 
V:4 bass 
V:6 bass 
V:1
 z4 z2 z[Q:1/4=100] C | D>E F>D C2 F2 | A2 A2 A3 B | c>d c>A F2 A2 | G2 F2 [EG]3 C | %5
 D>E F>D C2 F2 | A2 A2 A3 B | c>d c>B A2 F2 | [FA]2 [EG]2 F4 | [Fd]6 z2 | [Fc]4 z4 | %11
 [Ec]>c G>A [CEB]2 [CEA]>[CEG] | [F-A]4 F2 z2 | [Fd]6 z2 | [Fc]4 z4 | [Ec]>c G>A B>B [EA]>G | %16
[M:7/8] z z/ F/-F- F- F3 |] %17
V:2
 z4 z2 z [F,A,] | [F,A,C]>[F,A,C] [F,A,C]>[F,A,C] [F,A,]2 [F,A,C]2 | %2
 [F,CF]2 [F,CF]2 [F,CF]3 [F,G,F] | [F,A,F]>[F,B,F] [F,A,F]>[F,CF] [A,C]2 [F,CF]2 | %4
 [G,=B,F]2[K:bass] [G,B,D]2 [C,_B,]3 [F,A,] | [F,A,C]>[F,A,C] [F,A,C]>[F,A,C] [F,A,]2 [F,A,C]2 | %6
 [F,CF]2 [F,CF]2 [F,CF]3 [F,G,F] | [F,A,F]>[F,B,F] [F,A,F]>[F,DF] [F,CF]2 [F,A,]2 | %8
 [C,C]2 [C,B,]2 [F,A,]4 | z4 B,2 z2 | [F,A,]>[F,,F,] A,,>C, [F,CF]4 | %11
 z z/ E/ z z/[K:treble] F/ G,2[K:bass] C,>C, | F,>F, F,>F, (3:2:2z2[K:treble] G (3ABc | z4 B,2 z2 | %14
 [F,A,]>[F,,F,] A,,>C, [F,CF]4 | z z/ E/ z z/[K:treble] F/ E>E[K:bass] z z/ E/ | %16
[M:7/8] [F,A,]>[F,A,][F,B,]>[F,B,] [F,A,]3 |] %17
V:3
 x8 | x8 | x8 | x8 | x8 | x8 | x8 | x8 | x8 | z z/ B,/ B,>B, z z/ c/ [DB]>[Fd] | %10
 z z/ A,/ A,>A, A4 | x8 | C2 z2 c2 z2 | z z/ B,/ B,>B, z z/ c/ [DB]>[Fd] | z z/ A,/ A,>A, A4 | x8 | %16
[M:7/8] F2 D>D C3 |] %17
V:4
 x8 | x8 | x8 | x8 | x2[K:bass] x6 | x8 | x8 | x8 | x8 | [B,,B,]>B,, D,>G, z z/ _E/ [B,,B,]2 | x8 | %11
 [C,C]2 [E,C]2[K:treble] z4[K:bass] | z4 A,2[K:treble] z2 | [B,,B,]>B,, D,>F, z z/ _E/ [B,,B,]2 | %14
 x8 | [C,C]2 [E,C]2[K:treble] [G,C]2[K:bass] [C,B,]2 |[M:7/8] x7 |] %17
V:5
 x8 | x8 | x8 | x8 | x8 | x8 | x8 | x8 | x8 | x8 | x8 | x8 | z z/ C/ C>C (3:2:2z F2 z2 | x8 | x8 | %15
 x8 |[M:7/8] x7 |] %17
V:6
 x8 | x8 | x8 | x8 | x2[K:bass] x6 | x8 | x8 | x8 | x8 | x8 | x8 | x7/2[K:treble] x5/2[K:bass] x2 | %12
 z4 F,2[K:treble] z2 | x8 | x8 | x7/2[K:treble] x5/2[K:bass] x2 |[M:7/8] x7 |] %17

